X: 413
T: Yiduidui rengxi wo danguagua
%%abc-version 2.0
%%abcx-abcm2ps-target-version 5.9.1 (29 Sep 2008)
%%abc-creator hum2abc beta
%%abcx-conversion-date 2013/10/02 07:52:30
%%abc-edited-by Helmut Schaffrath
%%humdrum-veritas 2412312794
%%humdrum-veritas-data 3032512798
%%continueall 1
%%barnumbers 0
L: 1/8
M: 2/4
K: C
e> e d g [I:setbarnb 1]| 
c2A G | 
E2G E | 
d4 | 
e> e d g | 
c2A G | 
E2d2 | 
dc2A | 
G4 |]  



